X: 1102
T: How Much Has She Got?
R:double jig
N:"collected by J.O'Neill"
B:O'Neill's 1102
Z:Transcribed by henrik.norbeck@mailbox.swipnet.se
M:6/8
L:1/8
K:A
g|aed cBA|ecA A2g|aed cBA|dBG G2g|
aed cBA|def efg|agf =gfe|dBG A2:|
B|A2a aec|aec ABA|=G2g gdB|=gdB G2B|
A2a aec|def efg|agf =gfe|dBG A2:|


